X:26
T:Keldy Forest
M:4/4
L:1/8
C:Taz Tarry
S:Copyright B. Tarry 10/4/2002
Q:1/4=150
K:D
|:d4 A2G2|FGAB =c2A2|d4 e2f2|g2 g2 fe d2|
d4 A2G2|FGAB =c2A2|B4 e2c2|d4 d4:|
|:F2AA B2 A2|d2cc A2 F2|G2AA B2 A2|B2 e2 dcBA|
F2AA B2 A2|E2BB =c2 B2|B2 e2 dcBc|d4 d4:|
% Output from ABC2Win Version 2.1 f on 01/05/2002

